images/ic_bmkg.svg

<svg width="20" height="20" viewBox="0 0 20 20" fill="none" xmlns="http://www.w3.org/2000/svg">
<path d="M4.84375 20C5.27522 20 5.625 19.6502 5.625 19.2188C5.625 18.7873 5.27522 18.4375 4.84375 18.4375C4.41228 18.4375 4.0625 18.7873 4.0625 19.2188C4.0625 19.6502 4.41228 20 4.84375 20Z" fill="#3D3D3D"/>
<path d="M2.89062 17.5781C3.3221 17.5781 3.67188 17.2283 3.67188 16.7969C3.67188 16.3654 3.3221 16.0156 2.89062 16.0156C2.45915 16.0156 2.10938 16.3654 2.10938 16.7969C2.10938 17.2283 2.45915 17.5781 2.89062 17.5781Z" fill="#3D3D3D"/>
<path d="M12.2042 14.9635C11.882 14.6765 11.3881 14.7052 11.1012 15.0273L9.26305 17.0915L10.1275 14.7208C10.2148 14.4812 10.1798 14.2141 10.0336 14.0052C9.88739 13.7963 9.64844 13.6719 9.39348 13.6719H7.07208C6.87032 13.6719 6.76934 13.5371 6.73528 13.4792C6.70122 13.4213 6.63262 13.2675 6.73079 13.0912L9.17013 8.71094H11.4229L10.0305 11.0003C9.8838 11.2415 9.87864 11.543 10.017 11.7891C10.1554 12.0352 10.4157 12.1875 10.698 12.1875H13.3741C13.4179 12.1875 13.4279 12.2013 13.4339 12.2142C13.4384 12.224 13.444 12.2362 13.4172 12.2674C13.4152 12.2696 13.4133 12.2719 13.4114 12.2742L13.1516 12.5837C12.8743 12.9142 12.9173 13.407 13.2478 13.6844C13.5783 13.9618 14.0711 13.9188 14.3485 13.5882L14.6058 13.2816C15.0221 12.794 15.1172 12.1356 14.8538 11.562C14.5883 10.9841 14.0213 10.625 13.3741 10.625H12.0876L13.48 8.33566C13.6267 8.09445 13.6319 7.79289 13.4935 7.54684C13.3552 7.30074 13.0948 7.14844 12.8125 7.14844H8.71095C8.42751 7.14844 8.1663 7.30195 8.02841 7.54961L5.36571 12.331C5.02524 12.9423 5.03368 13.6675 5.38825 14.2709C5.74282 14.8742 6.37227 15.2344 7.07208 15.2344H8.27704L7.08641 18.4998C6.94403 18.8393 6.96981 19.1986 7.15884 19.4908C7.36524 19.8099 7.73977 20 8.16157 20C8.16341 20 8.16528 20 8.16716 20C8.52145 19.9986 8.86438 19.8577 9.10802 19.6133C9.11837 19.6029 9.12841 19.5922 9.13817 19.5813L12.2681 16.0665C12.555 15.7443 12.5265 15.2504 12.2042 14.9635Z" fill="#3D3D3D"/>
<path d="M2.10938 20C2.54085 20 2.89062 19.6502 2.89062 19.2188C2.89062 18.7873 2.54085 18.4375 2.10938 18.4375C1.6779 18.4375 1.32812 18.7873 1.32812 19.2188C1.32812 19.6502 1.6779 20 2.10938 20Z" fill="#3D3D3D"/>
<path d="M5.625 17.5781C6.05647 17.5781 6.40625 17.2283 6.40625 16.7969C6.40625 16.3654 6.05647 16.0156 5.625 16.0156C5.19353 16.0156 4.84375 16.3654 4.84375 16.7969C4.84375 17.2283 5.19353 17.5781 5.625 17.5781Z" fill="#3D3D3D"/>
<path d="M18.0469 5.84555V5.32508C18.0469 2.38883 15.658 0 12.7218 0C11.4432 0 10.2069 0.46 9.24074 1.29531C8.60152 1.84793 8.10691 2.54066 7.7918 3.31059C7.30734 3.06305 6.76629 2.92969 6.21094 2.92969C4.29395 2.92969 2.73438 4.48926 2.73438 6.40625V7.11672C1.17102 7.4673 0 8.85469 0 10.5078C0 12.2292 1.21301 13.6729 2.88422 13.9406C2.92609 13.9473 2.96766 13.9505 3.00875 13.9505C3.38578 13.9505 3.7177 13.6769 3.77922 13.2927C3.84746 12.8667 3.55742 12.466 3.13137 12.3977C2.2223 12.2521 1.5625 11.4573 1.5625 10.5078C1.5625 9.45238 2.43598 8.59375 3.50961 8.59375H3.51562C3.94711 8.59375 4.29688 8.24395 4.29688 7.8125V6.40625C4.29688 5.35082 5.15551 4.49219 6.21094 4.49219C6.75922 4.49219 7.2823 4.72859 7.64617 5.14078C7.84668 5.36793 8.16051 5.45859 8.45133 5.37355C8.74215 5.28844 8.9575 5.04285 9.00391 4.7434C9.28488 2.92996 10.8832 1.5625 12.7218 1.5625C14.7965 1.5625 16.4844 3.25039 16.4844 5.32508V6.28594C16.4844 6.57504 16.644 6.84051 16.8994 6.97602C17.8481 7.47957 18.4375 8.45867 18.4375 9.53125C18.4375 10.6855 17.7768 11.7237 16.7542 12.1762C16.3596 12.3508 16.1813 12.8122 16.3559 13.2068C16.5305 13.6013 16.992 13.7797 17.3864 13.6051C18.9741 12.9025 20 11.3035 20 9.53125C20 8.04168 19.2625 6.66937 18.0469 5.84555Z" fill="#3D3D3D"/>
<path d="M16.5625 17.5781C16.994 17.5781 17.3438 17.2283 17.3438 16.7969C17.3438 16.3654 16.994 16.0156 16.5625 16.0156C16.131 16.0156 15.7812 16.3654 15.7812 16.7969C15.7812 17.2283 16.131 17.5781 16.5625 17.5781Z" fill="#3D3D3D"/>
<path d="M15.7812 20C16.2127 20 16.5625 19.6502 16.5625 19.2188C16.5625 18.7873 16.2127 18.4375 15.7812 18.4375C15.3498 18.4375 15 18.7873 15 19.2188C15 19.6502 15.3498 20 15.7812 20Z" fill="#3D3D3D"/>
<path d="M13.0469 20C13.4783 20 13.8281 19.6502 13.8281 19.2188C13.8281 18.7873 13.4783 18.4375 13.0469 18.4375C12.6154 18.4375 12.2656 18.7873 12.2656 19.2188C12.2656 19.6502 12.6154 20 13.0469 20Z" fill="#3D3D3D"/>
<path d="M13.8281 17.5781C14.2596 17.5781 14.6094 17.2283 14.6094 16.7969C14.6094 16.3654 14.2596 16.0156 13.8281 16.0156C13.3967 16.0156 13.0469 16.3654 13.0469 16.7969C13.0469 17.2283 13.3967 17.5781 13.8281 17.5781Z" fill="#3D3D3D"/>
</svg>

<svg xmlns="http://www.w3.org/2000/svg" xmlns:xlink="http://www.w3.org/1999/xlink" viewBox="0 0 20 20"><g fill="#3d3d3d"><use xlink:href="#B"/><use xlink:href="#B" x="-1.954" y="-2.422"/><path d="M12.204 14.964a.78.78 0 0 0-1.103.064l-1.838 2.064.864-2.37a.78.78 0 0 0-.734-1.049h-2.32c-.202 0-.303-.135-.337-.193s-.103-.212-.004-.388l2.44-4.38h2.253L10.03 11a.78.78 0 0 0 .668 1.187h2.676c.044 0 .054.014.06.027s.01.022-.017.053l-.266.316a.78.78 0 0 0 1.197 1.005l.257-.307c.416-.488.51-1.146.248-1.72s-.833-.937-1.48-.937h-1.287l1.392-2.29a.78.78 0 0 0-.668-1.187H8.71a.78.78 0 0 0-.683.401l-2.663 4.78c-.34.61-.332 1.336.023 1.94s.984.963 1.684.963h1.205L7.086 18.5c-.142.34-.117.7.072.99.206.32.58.51 1.003.51h.006c.354-.001.697-.142.94-.387l.03-.032 3.13-3.515a.78.78 0 0 0-.064-1.103z"/><use xlink:href="#B" x="-2.734"/><use xlink:href="#B" x="0.781" y="-2.422"/><path d="M18.047 5.846v-.52C18.047 2.39 15.658 0 12.722 0c-1.28 0-2.515.46-3.48 1.295a5.34 5.34 0 0 0-1.449 2.015c-.484-.248-1.025-.38-1.58-.38a3.48 3.48 0 0 0-3.477 3.477v.7C1.17 7.467 0 8.855 0 10.508c0 1.72 1.213 3.165 2.884 3.433.042.007.083.01.125.01a.78.78 0 0 0 .77-.658.78.78 0 0 0-.648-.895c-.91-.146-1.57-.94-1.57-1.9 0-1.055.873-1.914 1.947-1.914h.006a.78.78 0 0 0 .781-.781V6.406c0-1.055.86-1.914 1.914-1.914.548 0 1.07.236 1.435.65a.78.78 0 0 0 1.358-.397 3.79 3.79 0 0 1 3.718-3.181 3.77 3.77 0 0 1 3.763 3.763v.96a.78.78 0 0 0 .415.69c.95.504 1.538 1.483 1.538 2.555 0 1.154-.66 2.192-1.683 2.645a.78.78 0 1 0 .632 1.429C18.974 12.903 20 11.304 20 9.532c0-1.5-.738-2.862-1.953-3.686z"/><use xlink:href="#B" x="11.718" y="-2.422"/><use xlink:href="#B" x="10.936"/><use xlink:href="#B" x="8.203"/><use xlink:href="#B" x="8.984" y="-2.422"/></g><defs ><path id="B" d="M4.844 20a.78.78 0 1 0 0-1.562.78.78 0 1 0 0 1.563z"/></defs></svg>
